X: 1
T: Passages (Harmonized Low)
C: David A. Kaynor, May 2021
%D:2021
R: waltz
M: 3/4
L: 1/8
K: F
% - - - - -
V: 1 staves=2
|: C2 | "F"F2 FA cA | F2 FA cA | "Bb"B2 FA Bd | "F"c3 f ga |
"C7"b2 ge cB | "Gm"G4 GA |1 "Bb"B2 Bc dc | "C"c4 :|2 "C7"Bc BG FE | "F"F4 |]
|: (3(EFE) | "Dm"DF AF AF | DF AF AF | DF AF AF | d3 A df |
"Gm"g2 gd BG | "Dm"A2 AF D2 |1 "G"GA  =BG Bc | "C"c4 :|2 "C7"Bc BG FE | "F"F4 |]
% - - - - -
V: 2
|: E2 |\
C2 CF AF | C2 CF AF | F2 DF GB | A3 c ef |
g2 ec G2 | D4 DF |1 F2 F2 BF | E4 :|2 G2 GE C2 | C4 |]
|: A,2 | A,D FD FD | A,D FD FD | A,D FD FD | A3 F Ad |
d2 dB GD | F2 FD A,2 |1 D2 GD G2 | G4 :|2 G2 GE C2 | C4 |]
